public/images/pieces/Wildebeest/bc.svg

<?xml version="1.0" encoding="UTF-8"?>
<svg xmlns="http://www.w3.org/2000/svg" xmlns:xlink="http://www.w3.org/1999/xlink" width="60px" height="60px" viewBox="0 0 60 60" version="1.1">
    
    <title>20 -Camel- (Solid)</title>
    <desc>Created with Sketch.</desc>
    <defs/>
    <g id="Page-1" stroke="none" stroke-width="1" fill="none" fill-rule="evenodd">
        <g id="Icons" transform="translate(-1200.000000, -491.000000)" fill="#000000">
            <g id="20--Camel--(Solid)" transform="translate(1200.000000, 491.000000)">
                <path d="M38,16.0061 C37.447,16.0061 37,15.5581 37,15.0061 C37,14.4541 37.447,14.0061 38,14.0061 C38.553,14.0061 39,14.4541 39,15.0061 C39,15.5581 38.553,16.0061 38,16.0061 M38,12.0061 C36.346,12.0061 35,13.3521 35,15.0061 C35,16.6601 36.346,18.0061 38,18.0061 C39.654,18.0061 41,16.6601 41,15.0061 C41,13.3521 39.654,12.0061 38,12.0061" id="Fill-129"/>
                <path d="M38,20.0061 C35.243,20.0061 33,17.7631 33,15.0061 C33,12.2491 35.243,10.0061 38,10.0061 C40.757,10.0061 43,12.2491 43,15.0061 C43,17.7631 40.757,20.0061 38,20.0061 L38,20.0061 Z M36,25.0061 C34.897,25.0061 34,25.9031 34,27.0061 C34,27.5581 33.553,28.0061 33,28.0061 C32.447,28.0061 32,27.5581 32,27.0061 C32,24.8001 33.794,23.0061 36,23.0061 C36.553,23.0061 37,23.4541 37,24.0061 C37,24.5581 36.553,25.0061 36,25.0061 L36,25.0061 Z M32,56.0061 C32,57.1091 31.103,58.0061 30,58.0061 C28.897,58.0061 28,57.1091 28,56.0061 L28,54.6041 L28,51.7081 C28.017,51.7131 28.033,51.7141 28.05,51.7191 C28.333,51.8001 28.614,51.8601 28.894,51.9051 C28.965,51.9181 29.037,51.9291 29.108,51.9381 C29.408,51.9781 29.706,52.0061 30,52.0061 C30.306,52.0061 30.613,51.9771 30.921,51.9361 C30.97,51.9291 31.018,51.9221 31.066,51.9141 C31.376,51.8651 31.687,51.8021 32,51.7111 L32,54.6131 L32,56.0061 Z M23,24.0061 C23,23.4541 23.447,23.0061 24,23.0061 C26.206,23.0061 28,24.8001 28,27.0061 C28,27.5581 27.553,28.0061 27,28.0061 C26.447,28.0061 26,27.5581 26,27.0061 C26,25.9031 25.103,25.0061 24,25.0061 C23.447,25.0061 23,24.5581 23,24.0061 L23,24.0061 Z M22,20.0061 C19.243,20.0061 17,17.7631 17,15.0061 C17,12.2491 19.243,10.0061 22,10.0061 C24.757,10.0061 27,12.2491 27,15.0061 C27,17.7631 24.757,20.0061 22,20.0061 L22,20.0061 Z M29.999,38.5921 L33.287,35.2991 C33.678,34.9081 34.312,34.9091 34.702,35.2981 C35.093,35.6891 35.093,36.3221 34.703,36.7131 L31,40.4201 L31,43.0061 C31,43.5581 30.553,44.0061 30,44.0061 C29.447,44.0061 29,43.5581 29,43.0061 L29,40.4211 L25.288,36.7141 C24.897,36.3231 24.897,35.6901 25.287,35.2991 C25.678,34.9081 26.312,34.9091 26.702,35.2981 L29.999,38.5921 Z M58.636,4.5621 C53.68,1.5801 47.801,3.3941 43.512,5.6321 C42.699,4.7581 41.794,3.9761 40.812,3.2991 C34.44,-1.0889 25.544,-1.0889 19.177,3.3001 C18.195,3.9771 17.293,4.7571 16.484,5.6251 C12.196,3.3901 6.318,1.5821 1.363,4.5641 C0.491,5.0891 -0.03,6.0371 0.002,7.0391 C0.069,9.1801 0.777,14.2411 5.869,14.9951 C5.906,15.0011 5.943,15.0041 5.981,15.0061 C6.133,15.0101 9.249,15.1111 12.214,14.6801 C12.042,15.7601 11.951,16.8841 11.941,18.0371 C11.91,21.8621 12.823,25.7201 14.654,29.5041 C16.048,32.3851 17.028,34.8171 17.553,36.6461 C19.143,34.4361 21,31.0061 21,27.0061 C21,26.4541 21.447,26.0061 22,26.0061 C22.553,26.0061 23,26.4541 23,27.0061 C23,32.6691 19.851,37.1741 17.994,39.3411 L17.995,41.0501 C18.117,43.8121 19.075,52.7501 26,55.3031 L26,56.0061 C26,58.2121 27.794,60.0061 30,60.0061 C32.206,60.0061 34,58.2121 34,56.0061 L34,55.3171 C41.035,52.7831 41.903,43.8101 41.994,41.0061 L41.994,39.8601 C39.857,36.9011 36.995,32.0091 36.995,27.0061 C36.995,26.4541 37.442,26.0061 37.995,26.0061 C38.548,26.0061 38.995,26.4541 38.995,27.0061 C38.995,30.5441 40.693,34.1361 42.385,36.8391 C42.894,34.9851 43.892,32.4861 45.336,29.5041 C47.167,25.7211 48.079,21.8621 48.048,18.0351 C48.038,16.8811 47.947,15.7571 47.775,14.6761 C50.748,15.1111 53.876,15.0091 54.028,15.0061 C54.066,15.0041 54.104,15.0011 54.141,14.9951 C59.225,14.2421 59.932,9.1791 59.999,7.0381 C60.031,6.0361 59.509,5.0881 58.636,4.5621 L58.636,4.5621 Z" id="Fill-131"/>
                <path d="M22,16.0061 C21.447,16.0061 21,15.5581 21,15.0061 C21,14.4541 21.447,14.0061 22,14.0061 C22.553,14.0061 23,14.4541 23,15.0061 C23,15.5581 22.553,16.0061 22,16.0061 M22,12.0061 C20.346,12.0061 19,13.3521 19,15.0061 C19,16.6601 20.346,18.0061 22,18.0061 C23.654,18.0061 25,16.6601 25,15.0061 C25,13.3521 23.654,12.0061 22,12.0061" id="Fill-134"/>
            </g>
        </g>
    </g>

	<metadata>
		<rdf:RDF xmlns:rdf="http://www.w3.org/1999/02/22-rdf-syntax-ns#" xmlns:rdfs="http://www.w3.org/2000/01/rdf-schema#" xmlns:dc="http://purl.org/dc/elements/1.1/">
			<rdf:Description about="https://iconscout.com/legal#licenses" dc:title="camel,animal,wildlife" dc:description="camel,animal,wildlife" dc:publisher="Iconscout" dc:date="2017-07-28" dc:format="image/svg+xml" dc:language="en">
				<dc:creator>
					<rdf:Bag>
						<rdf:li>Smashicons .</rdf:li>
					</rdf:Bag>
				</dc:creator>
			</rdf:Description>
		</rdf:RDF>
    </metadata></svg>

<?xml version="1.0" encoding="UTF-8" standalone="no"?>
<svg
   xmlns:dc="http://purl.org/dc/elements/1.1/"
   xmlns:cc="http://creativecommons.org/ns#"
   xmlns:rdf="http://www.w3.org/1999/02/22-rdf-syntax-ns#"
   xmlns:svg="http://www.w3.org/2000/svg"
   xmlns="http://www.w3.org/2000/svg"
   xmlns:sodipodi="http://sodipodi.sourceforge.net/DTD/sodipodi-0.dtd"
   xmlns:inkscape="http://www.inkscape.org/namespaces/inkscape"
   width="60px"
   height="60px"
   viewBox="0 0 60 60"
   version="1.1"
   id="svg16"
   sodipodi:docname="bc.svg"
   inkscape:version="0.92.2 2405546, 2018-03-11">
  <sodipodi:namedview
     pagecolor="#ffffff"
     bordercolor="#666666"
     borderopacity="1"
     objecttolerance="10"
     gridtolerance="10"
     guidetolerance="10"
     inkscape:pageopacity="0"
     inkscape:pageshadow="2"
     inkscape:window-width="960"
     inkscape:window-height="1200"
     id="namedview18"
     showgrid="false"
     inkscape:zoom="3.9333333"
     inkscape:cx="30.508475"
     inkscape:cy="30"
     inkscape:window-x="0"
     inkscape:window-y="0"
     inkscape:window-maximized="0"
     inkscape:current-layer="svg16" />
  <title
     id="title2">20 -Camel- (Solid)</title>
  <desc
     id="desc4">Created with Sketch.</desc>
  <defs
     id="defs6" />
  <g
     id="Page-1"
     transform="matrix(0.86016899,0,0,0.8898266,4.5763559,3.8144655)"
     style="fill:none;fill-rule:evenodd;stroke:none;stroke-width:1">
    <g
       id="Icons"
       transform="translate(-1200,-491)"
       style="fill:#000000">
      <g
         id="20--Camel--(Solid)"
         transform="translate(1200,491)">
        <path
           d="m 38,16.0061 c -0.553,0 -1,-0.448 -1,-1 0,-0.552 0.447,-1 1,-1 0.553,0 1,0.448 1,1 0,0.552 -0.447,1 -1,1 m 0,-4 c -1.654,0 -3,1.346 -3,3 0,1.654 1.346,3 3,3 1.654,0 3,-1.346 3,-3 0,-1.654 -1.346,-3 -3,-3"
           id="Fill-129"
           inkscape:connector-curvature="0" />
        <path
           d="m 38,20.0061 c -2.757,0 -5,-2.243 -5,-5 0,-2.757 2.243,-5 5,-5 2.757,0 5,2.243 5,5 0,2.757 -2.243,5 -5,5 z m -2,5 c -1.103,0 -2,0.897 -2,2 0,0.552 -0.447,1 -1,1 -0.553,0 -1,-0.448 -1,-1 0,-2.206 1.794,-4 4,-4 0.553,0 1,0.448 1,1 0,0.552 -0.447,1 -1,1 z m -4,31 c 0,1.103 -0.897,2 -2,2 -1.103,0 -2,-0.897 -2,-2 v -1.402 -2.896 c 0.017,0.005 0.033,0.006 0.05,0.011 0.283,0.081 0.564,0.141 0.844,0.186 0.071,0.013 0.143,0.024 0.214,0.033 0.3,0.04 0.598,0.068 0.892,0.068 0.306,0 0.613,-0.029 0.921,-0.07 0.049,-0.007 0.097,-0.014 0.145,-0.022 0.31,-0.049 0.621,-0.112 0.934,-0.203 v 2.902 z m -9,-32 c 0,-0.552 0.447,-1 1,-1 2.206,0 4,1.794 4,4 0,0.552 -0.447,1 -1,1 -0.553,0 -1,-0.448 -1,-1 0,-1.103 -0.897,-2 -2,-2 -0.553,0 -1,-0.448 -1,-1 z m -1,-4 c -2.757,0 -5,-2.243 -5,-5 0,-2.757 2.243,-5 5,-5 2.757,0 5,2.243 5,5 0,2.757 -2.243,5 -5,5 z m 7.999,18.586 3.288,-3.293 c 0.391,-0.391 1.025,-0.39 1.415,-0.001 0.391,0.391 0.391,1.024 0.001,1.415 L 31,40.4201 v 2.586 c 0,0.552 -0.447,1 -1,1 -0.553,0 -1,-0.448 -1,-1 v -2.585 l -3.712,-3.707 c -0.391,-0.391 -0.391,-1.024 -0.001,-1.415 0.391,-0.391 1.025,-0.39 1.415,-0.001 z m 28.637,-34.03 c -4.956,-2.982 -10.835,-1.168 -15.124,1.07 -0.813,-0.874 -1.718,-1.656 -2.7,-2.333 -6.372,-4.388 -15.268,-4.388 -21.635,10e-4 -0.982,0.677 -1.884,1.457 -2.693,2.325 -4.288,-2.235 -10.166,-4.043 -15.121,-1.061 -0.872,0.525 -1.393,1.473 -1.361,2.475 0.067,2.141 0.775,7.202 5.867,7.956 0.037,0.006 0.074,0.009 0.112,0.011 0.152,0.004 3.268,0.105 6.233,-0.326 -0.172,1.08 -0.263,2.204 -0.273,3.357 -0.031,3.825 0.882,7.683 2.713,11.467 1.394,2.881 2.374,5.313 2.899,7.142 1.59,-2.21 3.447,-5.64 3.447,-9.64 0,-0.552 0.447,-1 1,-1 0.553,0 1,0.448 1,1 0,5.663 -3.149,10.168 -5.006,12.335 l 0.001,1.709 c 0.122,2.762 1.08,11.7 8.005,14.253 v 0.703 c 0,2.206 1.794,4 4,4 2.206,0 4,-1.794 4,-4 v -0.689 c 7.035,-2.534 7.903,-11.507 7.994,-14.311 v -1.146 c -2.137,-2.959 -4.999,-7.851 -4.999,-12.854 0,-0.552 0.447,-1 1,-1 0.553,0 1,0.448 1,1 0,3.538 1.698,7.13 3.39,9.833 0.509,-1.854 1.507,-4.353 2.951,-7.335 1.831,-3.783 2.743,-7.642 2.712,-11.469 -0.01,-1.154 -0.101,-2.278 -0.273,-3.359 2.973,0.435 6.101,0.333 6.253,0.33 0.038,-0.002 0.076,-0.005 0.113,-0.011 5.084,-0.753 5.791,-5.816 5.858,-7.957 0.032,-1.002 -0.49,-1.95 -1.363,-2.476 z"
           id="Fill-131"
           inkscape:connector-curvature="0" />
        <path
           d="m 22,16.0061 c -0.553,0 -1,-0.448 -1,-1 0,-0.552 0.447,-1 1,-1 0.553,0 1,0.448 1,1 0,0.552 -0.447,1 -1,1 m 0,-4 c -1.654,0 -3,1.346 -3,3 0,1.654 1.346,3 3,3 1.654,0 3,-1.346 3,-3 0,-1.654 -1.346,-3 -3,-3"
           id="Fill-134"
           inkscape:connector-curvature="0" />
      </g>
    </g>
  </g>
  <metadata
     id="metadata14">
    <rdf:RDF>
      <rdf:Description
         about="https://iconscout.com/legal#licenses"
         dc:title="camel,animal,wildlife"
         dc:description="camel,animal,wildlife"
         dc:publisher="Iconscout"
         dc:date="2017-07-28"
         dc:format="image/svg+xml"
         dc:language="en">
        <dc:creator>
          <rdf:Bag>
            <rdf:li>Smashicons .</rdf:li>
          </rdf:Bag>
        </dc:creator>
      </rdf:Description>
      <cc:Work
         rdf:about="">
        <dc:format>image/svg+xml</dc:format>
        <dc:type
           rdf:resource="http://purl.org/dc/dcmitype/StillImage" />
      </cc:Work>
    </rdf:RDF>
  </metadata>
</svg>
